web/workspace/public/assets/icons/white/spinner.svg

<svg xmlns="http://www.w3.org/2000/svg" width="30" height="30" viewBox="0 0 30 30"><path d="M14 8h2V0h-2v8zm0 22h2v-8h-2v8zM26.313 5.101l-1.414-1.414-5.657 5.657 1.415 1.414 5.656-5.657zM3.687 24.899l1.414 1.414 5.657-5.657-1.415-1.414-5.656 5.657zm0-19.798l5.656 5.657 1.415-1.414-5.657-5.657-1.414 1.414zm15.555 15.555l5.657 5.657 1.414-1.414-5.656-5.657-1.415 1.414zM22 14v2h8v-2h-8zM8 14H0v2h8v-2z" fill="#fff"/></svg>

<?xml version="1.0" encoding="iso-8859-1"?>
<!-- Generator: Adobe Illustrator 14.0.0, SVG Export Plug-In . SVG Version: 6.00 Build 43363)  -->
<!DOCTYPE svg PUBLIC "-//W3C//DTD SVG 1.1//EN" "http://www.w3.org/Graphics/SVG/1.1/DTD/svg11.dtd">
<svg version="1.1" id="Layer_1" xmlns="http://www.w3.org/2000/svg" xmlns:xlink="http://www.w3.org/1999/xlink" x="0px" y="0px"
	 width="30px" height="30px" viewBox="0 0 30 30" style="enable-background:new 0 0 30 30;" xml:space="preserve">
<path style="fill:#fff" d="M14,8h2V0h-2V8z M14,30h2v-8h-2V30z M26.313,5.101l-1.414-1.414l-5.657,5.657l1.415,1.414L26.313,5.101z M3.687,24.899
	l1.414,1.414l5.657-5.657l-1.415-1.414L3.687,24.899z M3.687,5.101l5.656,5.657l1.415-1.414L5.101,3.687L3.687,5.101z
	 M19.242,20.656l5.657,5.657l1.414-1.414l-5.656-5.657L19.242,20.656z M22,14v2h8v-2H22z M8,14H0v2h8V14z"/>
</svg>
